X: 1
T: Angst Agus Angus
Z: Cach Mhor Fiddler
S: https://thesession.org/tunes/15682#setting29428
R: jig
M: 6/8
L: 1/8
K: Dmaj
DED FED|A2B AFD|EEE e2d|cdB AFE|
DED FED|GAB B2d|cdB A2G|1FGE D3:|2FGE D2e||
eAA cAA|efg gfe|fAA cAA|fga agf|
^gBB cBB|^gab bag|agf gfe|1fdB A2e:|2fdB A3||
